X:93
T: S IST ALLES DUNKEL
N: E0698A
O: Europa, Mitteleuropa, Deutschland, Hessen, Wetterau
R: Liebes - Lied, Leid, Klage
M: 3/4
L: 1/8
K: G
DDD | GBBBBB | Bdd
dcB | A2c2BA | G2z
GFG | A3AGE | D2z
FFG | A3AGE | D2z
DDD | B,DGBBB | B2d
dcB | A2ccBA | G2z
DDD | B,DGBBB | B2d
dcB | A2ccBA | G2z

@@@ Tune index: 4406
